X: 27
T:The Big Ship
% Nottingham Music Database
S:Nan Fleming Williams, via EF
M:4/4
L:1/4
K:G
P:A
D|"G"GG/2A/2 B/2A/2B/2c/2|"G"d/2e/2d/2c/2 BG|"D7"c/2d/2c/2B/2 A/2F/2A|\
"G"d/2e/2d/2c/2 "D7"BD|
"G"G/2F/2G/2A/2 B/2A/2B/2c/2|"G"d/2e/2d/2c/2 BG|\
"C"c/2d/2c/2B/2 "D7"A/2G/2F/2A/2|"G"GB G:|
P:B
d|"C"gg/2f/2 e/2f/2g/2e/2|"G"dd/2c/2 BG|"Am"cc/2B/2 "D7"AA|\
"G"d/2e/2d/2c/2 "G7"Bd|
"C"g/2a/2g/2f/2 e/2f/2g/2e/2|"G"d/2e/2d/2c/2 BG|\
"C"c/2d/2c/2B/2 "D7"A/2G/2F/2A/2|"G"GB G:|<end>
<start>
